X:1
T:Title
%%score { ( 1 3 ) | ( 2 4 ) }
L:1/8
Q:1/4=100
M:4/4
K:Bb
V:1 treble nm="Grand Piano"
V:3 treble 
V:2 bass 
V:4 bass 
V:1
 [DF]2 [DB]2 [Fd]2 [Fe]2 | [Ed]4 [EG]4 | F3 G A2 G2 | F6[K:bass] z2 | G2 =B2 d2 e2 | [Ed]4 [EG]4 | %6
w: J.~Howard~Entwisle * * *||||||
 A3 G F2 c2 | [DB]6[K:bass] z2 | c>B A>B c2 d2 | [Dc]4 [DB]4 | A>G ^F>G A2 B2 | A4 G4 | %12
w: ||||||
 G2 [GB]2 [Ge]>[Ge] [GB]>G | F4 d2 z2 | c2 d2 f>e d>c | B6 z2 |] %16
w: ||||
V:2
 [B,,B,]2 [B,,F,]2 [B,,B,]2 [B,,B,]2 | .[E,G,]2 .E,[K:treble]c[K:bass] .E,2 .E,2 | %2
 [F,A,E]3 [F,B,E] [F,CE]2 [F,A,E]2 | [B,D]6 z2 | [G,=B,F]2 [G,DF]2 [G,B,G]2 [G,F]2 | %5
 .[C,G,]2 .C,[K:treble]c[K:bass] .C,2 .C,2 | [F,CE]3 [F,B,E] [F,A,E]2 [F,E]2 | %7
 [B,,F,]2 F,2 B,,2 z2 | [F,A,E]>[F,B,E] [F,CE]>[F,B,E] [F,A,E]2 [F,E]2 | [B,,F,]4 [B,,F,]4 | %10
 [D,^F,D]>[D,G,D] [D,A,D]>[D,B,D] [D,CD]2 [D,D]2 | [G,CD]4 [G,B,D]4 | %12
 [E,B,E]2 [E,B,]2 [E,B,]>[E,B,] [E,B,]>[E,B,E] | B,4- [B,F]2 z2 | %14
 [F,A,F]2 [F,B,F]2 [F,DF]>[F,CF] [F,B,F]>[F,A,E] | z2 G,>G, F,2 z2 |] %16
V:3
 x8 | z2 .G,2 .C2 .B,2 | x8 | z2[K:bass] .F,2 .D,2 .B,,2 | x8 | z2 .G,2 .C2 .C2 | x8 | %7
 z4[K:bass] F,2 z2 | x8 | x8 | x8 | x8 | x8 | x8 | x8 | [B,D]2 E>E D2 z2 |] %16
V:4
 x8 | x3[K:treble] x[K:bass] x4 | x8 | x8 | x8 | x3[K:treble] x[K:bass] x4 | x8 | x8 | x8 | x8 | %10
 x8 | x8 | x8 | D4 z4 | x8 | B,,6 z2 |] %16

